src/img/decor/play-grup.svg

<svg width="130" height="130" viewBox="0 0 130 130" fill="none" xmlns="http://www.w3.org/2000/svg">
<g clip-path="url(#clip0_0_1148)">
<path opacity="0.2" fill-rule="evenodd" clip-rule="evenodd" d="M64.9999 -0.00013C100.898 -0.00013 130 29.1013 130 64.9999C130 100.898 100.898 130 64.9999 130C29.1014 130 0 100.898 0 64.9999C0 29.1013 29.1014 -0.00013 64.9999 -0.00013Z" fill="#FE3E57"/>
<path opacity="0.6" fill-rule="evenodd" clip-rule="evenodd" d="M64.9999 9.99967C95.3756 9.99967 120 34.6242 120 64.9999C120 95.3755 95.3756 120 64.9999 120C34.6243 120 10 95.3755 10 64.9999C10 34.6242 34.6243 9.99967 64.9999 9.99967Z" fill="#FE3E57"/>
<path fill-rule="evenodd" clip-rule="evenodd" d="M64.9999 19.9999C89.8527 19.9999 110 40.147 110 64.9998C110 89.8527 89.8527 110 64.9999 110C40.1471 110 19.9999 89.8527 19.9999 64.9998C19.9999 40.147 40.1471 19.9999 64.9999 19.9999Z" fill="#FE3E57"/>
<path fill-rule="evenodd" clip-rule="evenodd" d="M71.8158 63.1416L59.9919 55.5365C59.4459 55.1849 58.8957 54.9992 58.4384 54.9992C57.5543 54.9992 57.0074 55.6662 57.0074 56.7818V73.2188C57.0074 74.3336 57.5536 74.9989 58.4356 74.9989C58.8937 74.9989 59.435 74.8128 59.9823 74.4604L71.8117 66.8553C72.5724 66.3656 72.9936 65.7059 72.9936 64.9982C72.9938 64.2906 72.5774 63.6313 71.8158 63.1416" fill="white"/>
</g>
<defs>
<clipPath id="clip0_0_1148">
<rect width="130" height="130" fill="white"/>
</clipPath>
</defs>
</svg>

<svg width="130" height="130" fill="none" xmlns="http://www.w3.org/2000/svg"><g clip-path="url(#clip0_0_1148)" fill-rule="evenodd" clip-rule="evenodd"><path opacity=".2" d="M65 0c35.898 0 65 29.101 65 65 0 35.898-29.102 65-65 65-35.9 0-65-29.102-65-65C0 29.1 29.101 0 65 0z" fill="#FE3E57"/><path opacity=".6" d="M65 10c30.376 0 55 24.624 55 55s-24.624 55-55 55-55-24.624-55-55 24.624-55 55-55z" fill="#FE3E57"/><path d="M65 20c24.853 0 45 20.147 45 45s-20.147 45-45 45-45-20.147-45-45 20.147-45 45-45z" fill="#FE3E57"/><path d="M71.816 63.142l-11.824-7.606c-.546-.351-1.096-.537-1.554-.537-.884 0-1.43.667-1.43 1.783v16.437c0 1.115.546 1.78 1.428 1.78.458 0 .999-.186 1.546-.539l11.83-7.605c.76-.49 1.182-1.15 1.182-1.857 0-.707-.417-1.367-1.178-1.856" fill="#fff"/></g><defs><clipPath id="clip0_0_1148"><path fill="#fff" d="M0 0h130v130H0z"/></clipPath></defs></svg>
